symbols/web/speaker_phone/materialsymbolsoutlined/speaker_phone_wght100fill1_48px.svg

<svg xmlns="http://www.w3.org/2000/svg" height="48" width="48"><path d="m16.25 16.2-.75-.75q1.7-1.7 3.875-2.575Q21.55 12 24 12t4.625.875q2.175.875 3.875 2.575l-.75.75q-1.6-1.5-3.6-2.3-2-.8-4.15-.8-2.15 0-4.15.8-2 .8-3.6 2.3Zm-5.15-5.3-.8-.8q2.65-2.6 6.25-4.05Q20.15 4.6 24 4.6t7.45 1.45q3.6 1.45 6.25 4.05l-.8.8q-2.6-2.5-5.925-3.85Q27.65 5.7 24 5.7q-3.65 0-6.975 1.35Q13.7 8.4 11.1 10.9ZM27.45 42h-6.9q-1.15 0-1.925-.775-.775-.775-.775-1.925V24.4q0-1.15.775-1.925.775-.775 1.925-.775h6.9q1.15 0 1.925.775.775.775.775 1.925v14.9q0 1.15-.775 1.925Q28.6 42 27.45 42Z"/></svg>

<svg xmlns="http://www.w3.org/2000/svg" height="48" width="48"><path d="M16.25 16.2 15.5 15.45Q17.2 13.75 19.375 12.875Q21.55 12 24 12Q26.45 12 28.625 12.875Q30.8 13.75 32.5 15.45L31.75 16.2Q30.15 14.7 28.15 13.9Q26.15 13.1 24 13.1Q21.85 13.1 19.85 13.9Q17.85 14.7 16.25 16.2ZM11.1 10.9 10.3 10.1Q12.95 7.5 16.55 6.05Q20.15 4.6 24 4.6Q27.85 4.6 31.45 6.05Q35.05 7.5 37.7 10.1L36.9 10.9Q34.3 8.4 30.975 7.05Q27.65 5.7 24 5.7Q20.35 5.7 17.025 7.05Q13.7 8.4 11.1 10.9ZM27.45 42H20.55Q19.4 42 18.625 41.225Q17.85 40.45 17.85 39.3V24.4Q17.85 23.25 18.625 22.475Q19.4 21.7 20.55 21.7H27.45Q28.6 21.7 29.375 22.475Q30.15 23.25 30.15 24.4V39.3Q30.15 40.45 29.375 41.225Q28.6 42 27.45 42Z"/></svg>
